assets/Credit card/Flat/credit_card_flat.svg

<svg width="32" height="32" viewBox="0 0 32 32" fill="none" xmlns="http://www.w3.org/2000/svg">
<path d="M27.7524 30H4.24759C3.00892 30 2 28.9906 2 27.7512V14.2488C2 13.0094 3.00892 12 4.24759 12H27.7524C28.9911 12 30 13.0094 30 14.2488V27.7512C30 29.0006 28.9911 30 27.7524 30Z" fill="#00A6ED"/>
<path d="M23.3864 24H5.61355C5.28163 24 5 23.7273 5 23.3838V20.6162C5 20.2828 5.27157 20 5.61355 20H23.3864C23.7184 20 24 20.2727 24 20.6162V23.3939C24 23.7273 23.7284 24 23.3864 24Z" fill="#F4F4F4"/>
<path d="M25.3532 28H27.1468C27.6219 28 28 27.6219 28 27.1468V25.3532C28 24.8781 27.6219 24.5 27.1468 24.5H25.3532C24.8781 24.5 24.5 24.8781 24.5 25.3532V27.1468C24.5 27.6122 24.8878 28 25.3532 28Z" fill="#FFF478"/>
<path d="M30 15H2V18H30V15Z" fill="#321B41"/>
<path d="M6 22C6 21.7239 6.22386 21.5 6.5 21.5H17.5C17.7761 21.5 18 21.7239 18 22C18 22.2761 17.7761 22.5 17.5 22.5H6.5C6.22386 22.5 6 22.2761 6 22Z" fill="#9B9B9B"/>
</svg>

<svg xmlns="http://www.w3.org/2000/svg" width="32" height="32" fill="none"><path fill="#00A6ED" d="M27.752 30H4.248A2.252 2.252 0 0 1 2 27.751V14.25A2.252 2.252 0 0 1 4.248 12h23.504A2.252 2.252 0 0 1 30 14.249V27.75A2.245 2.245 0 0 1 27.752 30Z"/><path fill="#F4F4F4" d="M23.386 24H5.614A.617.617 0 0 1 5 23.384v-2.768c0-.333.272-.616.614-.616h17.772c.332 0 .614.273.614.616v2.778a.609.609 0 0 1-.614.606Z"/><path fill="#FFF478" d="M25.353 28h1.794a.848.848 0 0 0 .853-.853v-1.794a.848.848 0 0 0-.853-.853h-1.794a.848.848 0 0 0-.853.853v1.794a.86.86 0 0 0 .853.853Z"/><path fill="#321B41" d="M30 15H2v3h28v-3Z"/><path fill="#9B9B9B" d="M6 22a.5.5 0 0 1 .5-.5h11a.5.5 0 0 1 0 1h-11A.5.5 0 0 1 6 22Z"/></svg>
